X:26
T:Haughs Of Cromdale, The
R:strathspey
H:See also slide#62 "Barrack Hill", polka#32 "The Glen Cottage"
D:The Beaton Family of Mabou
O:Scotland
Z:id:hn-strathspey-26
M:C
L:1/8
K:Edor
B<EE>F B>AF>A | B<EE>F D>EF>A | B<EE>F B>AF>A |1 B>d B/A/G/F/ E2E>e :|
[2 B>d B/A/G/F/ E2E>F :||: D<dd>e d/c/B/c/ d2 | F<AA>B B/A/G/F/ A2 |
B<ee>f g>fe>d |1 B>d B/A/G/F/ E2EF :|2 B>d B/A/G/F/ E2Ee ||
P:Variations
|: B<EE>d B>AF>A | B<EE<F D>EF>A | B<EE>F B>AF>A |1 B<d A<F E2E>d :|
[2 B<d A<F E2E>F :||: D<dd>e d/c/B/A/ d2 | F<AA>B A<F A2 |
e2e>f g>fe>d |1 B<d A<F E2EF :|2 B<d A<F E2Ed ||

